X:1
T:Pas de Six, V. Allegro
T:Pas de Six, V. Allegro
T:Swan Lake, Piano Arrangement for 3 hands
T:Hinci
C:Hinci
%%score { ( 1 4 ) | ( 2 5 ) | 3 }
L:1/8
Q:1/4=138
M:4/4
K:Eb
V:1 treble nm="Piano" snm="Pno."
V:4 treble 
V:2 bass 
V:5 bass 
V:3 treble 
V:1
"^Allegro."!ff! G2 G2 G2 G2 | (3[d=bd'][dbd'][dbd'] [dbd']2 (3[ec'e'][ec'e'][ec'e'] [ec'e']2 | %2
 G2 G2 G2 G2 | (3[^fc'e'^f'][fc'e'f'][fc'e'f'] [fc'e'f']2 (3[g=bd'g'][gbd'g'][gbd'g'] [gbd'g']2 | %4
 G2 G2 G2 G2 | (3[d=bd'][dbd'][dbd'] [dbd']2 (3[ec'e'][ec'e'][ec'e'] [ec'e']2 | G2 G2 G2 G2 | %7
 (3[^fc'e'^f'][fc'e'f'][fc'e'f'] [fc'e'f']2 (3[g=bd'g'][gbd'g'][gbd'g'] [gbd'g']2 | %8
 (3[gbc'=e'g'][gbc'e'g'][gbc'e'g'] [gbc'e'g']2 (3[d=ac'd'][dac'd'][dac'd'] [dac'd']2 | %9
 (3[fac'd'f'][fac'd'f'][fac'd'f'] [fac'd'f']2 (3[c=egc'][cegc'][cegc'] [cegc']2 | %10
!mf!!<(! (3[c=e][df][^d^f] (3[eg][f=a][_a=b] (3[=ac'][bd'][c'=e']!<)!!ff! .[d'f']2 | %11
 (3[ff'][=e=e'][ff'] (3[ff'][ee'][ff'] (3[ff'][^f^f']g' (3:2:2[ee']2 [cgc'] | %12
 (3[gbc'=e'g'][gbc'e'g'][gbc'e'g'] [gbc'e'g']2 (3[d=ac'd'][dac'd'][dac'd'] [dac'd']2 | %13
 (3[fac'd'f'][fac'd'f'][fac'd'f'] [fac'd'f']2 (3[c=egc'][cegc'][cegc'] [cegc']2 | %14
!mf!!<(! (3[c=e][df][^d^f] (3[eg][f=a][_a=b] (3[=ac'][bd'][c'=e']!<)!!ff! .[d'f']2 | %15
 (3[ff'][=e=e'][ff'] (3[ff'][ee'][ff'] (3[gd'f'][=ad'f'][=bd'f'] .[c'e']2 | (3=eee e2 (3eee e2 | %17
 (3:2:2[=e=e']2 [ee'] (3:2:2[cc']2 [cc'] (3:2:2[=A=a]2 [Aa] (3([^^F^^f][^G^g][=B=b]) | %18
 (3=eee e2 (3eee e2 | %19
 (3:2:2[=e=e']2 [ee'] (3:2:2[cc']2 [cc'] (3:2:2[=A=a]2 [Aa] (3:2:2([^G^g]2 [=Ee]) | %20
 (3=eee e2 (3eee e2 | %21
 (3:2:2[=e=e']2 [ee'] (3:2:2[cc']2 [cc'] (3:2:2[=A=a]2 [Aa] (3([^^F^^f][^G^g][=B=b]) | %22
 (3=eee e2 (3eee e2 | %23
 (3:2:2[=e=e']2 [ee'] (3:2:2[cc']2 [cc'] (3:2:2[=A=a]2 [Aa] (3:2:2([^G^g]2 [=Ee]) | G2 G2 G2 G2 | %25
 (3[d=bd'][dbd'][dbd'] [dbd']2 (3[ec'e'][ec'e'][ec'e'] [ec'e']2 | G2 G2 G2 G2 | %27
 (3[^fc'e'^f'][fc'e'f'][fc'e'f'] [fc'e'f']2 (3[g=bd'g'][gbd'g'][gbd'g'] [gbd'g']2 | %28
 (3[gbc'=e'g'][gbc'e'g'][gbc'e'g'] [gbc'e'g']2 (3[d=ac'd'][dac'd'][dac'd'] [dac'd']2 | %29
 (3[fac'd'f'][fac'd'f'][fac'd'f'] [fac'd'f']2 (3[c=egc'][cegc'][cegc'] [cegc']2 | %30
!mf!!<(! (3[c=e][df][^d^f] (3[eg][f=a][_a=b] (3[=ac'][bd'][c'=e']!<)!!ff! .[d'f']2 | %31
 (3[ff'][=e=e'][ff'] (3[ff'][ee'][ff'] (3[gd'f'][=ad'f'][=bd'f'] .[c'e']2 |] %32
V:2
 G,2 G,2 G,2 G,2 | (3[G,,G,][G,,G,][G,,G,] [G,,G,]2 (3[G,,G,][G,,G,][G,,G,] [G,,G,]2 | %2
 G,2 G,2 G,2 G,2 | (3[G,,G,][G,,G,][G,,G,] [G,,G,]2 (3[G,,G,][G,,G,][G,,G,] [G,,G,]2 | %4
 G,2 G,2 G,2 G,2 | (3[G,,G,][G,,G,][G,,G,] [G,,G,]2 (3[G,,G,][G,,G,][G,,G,] [G,,G,]2 | %6
 G,2 G,2 G,2 G,2 | (3[G,,G,][G,,G,][G,,G,] [G,,G,]2 (3[G,,G,][G,,G,][G,,G,] [G,,G,]2 | %8
 [C,,C,]2 [C,C]2 [C,,C,]2 [C,C]2 | [C,,C,]2 [C,C]2 [C,,C,]2 [C,C]2 | %10
 (3[C=E][=B,D][=A,C] (3[G,B,][^F,A,][=F,_A,] (3[=E,G,][D,F,][C,E,] .G,,2 | %11
 G,,2 A,,2 (3:2:2=A,,2 =B,, (3:2:2C,2 C, | [C,,C,]2 [C,C]2 [C,,C,]2 [C,C]2 | %13
 [C,,C,]2 [C,C]2 [C,,C,]2 [C,C]2 | %14
 (3[C=E][=B,D][=A,C] (3[G,B,][^F,A,][=F,_A,] (3[=E,G,][D,F,][C,E,] .G,,2 | %15
 [G,,G,]2 [=A,,=A,]2 (3[=B,,=B,][A,,A,][G,,G,] .[C,,C,]2 |[I:staff -1] (3=EEE E2 (3EEE E2 | %17
[I:staff +1] (3:2:2G, !>!A,2 (3:2:2A, !>!=A,2 (3:2:2=B, !>!C2- (3(CB,G,) | %18
[I:staff -1] (3=EEE E2 (3EEE E2 | %19
[I:staff +1] (3:2:2G, !>!A,2 (3:2:2A, !>!=A,2 (3:2:2=B, !>!C2- (3(CB,A,) | %20
[I:staff -1] (3=EEE E2 (3EEE E2 | %21
[I:staff +1] (3:2:2G, !>!A,2 (3:2:2A, !>!=A,2 (3:2:2=B, !>!C2- (3(CB,G,) | %22
[I:staff -1] (3=EEE E2 (3EEE E2 | %23
[I:staff +1] (3:2:2G, !>!A,2 (3:2:2A, !>!=A,2 (3:2:2=B, !>!C2- (3(CB,A,) | G,2 G,2 G,2 G,2 | %25
 (3[G,,G,][G,,G,][G,,G,] [G,,G,]2 (3[G,,G,][G,,G,][G,,G,] [G,,G,]2 | G,2 G,2 G,2 G,2 | %27
 (3[G,,G,][G,,G,][G,,G,] [G,,G,]2 (3[G,,G,][G,,G,][G,,G,] [G,,G,]2 | %28
 [C,,C,]2 [C,C]2 [C,,C,]2 [C,C]2 | [C,,C,]2 [C,C]2 [C,,C,]2 [C,C]2 | %30
 (3[C=E][=B,D][=A,C] (3[G,B,][^F,A,][=F,_A,] (3[=E,G,][D,F,][C,E,] .G,,2 | %31
 [G,,G,]2 [=A,,=A,]2 (3[=B,,=B,][A,,A,][G,,G,] .[C,,C,]2 |] %32
V:3
 z8 | (3[=B,D][B,D][B,D] [B,D]2 (3[CE][CE][CE] [CE]2 | z8 | %3
 (3[E^Fc][EFc][EFc] [EFc]2 (3[DG=B][DGB][DGB] [DGB]2 | z8 | %5
 (3[=B,D][B,D][B,D] [B,D]2 (3[CE][CE][CE] [CE]2 | z8 | %7
 (3[E^Fc][EFc][EFc] [EFc]2 (3[DG=B][DGB][DGB] [DGB]2 | %8
 (3[B=e][Be][Be] [Be]2 (3[=Ac][Ac][Ac] [Ac]2 | (3[Ad][Ad][Ad] [Ad]2 (3[=EG][EG][EG] [EG]2 | %10
 (3[C=E][DF][^D^F] (3[EG][F=A][_A=B] (3[=Ac][Bd][c=e] .[df]2 | %11
 [G,=B,DF]2 [A,_B,DF]2 (3:2:2[=A,DF]2 [G,DG] (3:2:2[G,=EG]2 [G,EG] | %12
 (3[B=e][Be][Be] [Be]2 (3[=Ac][Ac][Ac] [Ac]2 | (3[Ad][Ad][Ad] [Ad]2 (3[=EG][EG][EG] [EG]2 | %14
 (3[C=E][DF][^D^F] (3[EG][F=A][_A=B] (3[=Ac][Bd][c=e] .[df]2 | %15
 [DFG]2 [DF=A]2 (3[G,F][=A,FA][=B,FG] .[CG]2 | z8 | !>![=E=e]4 !>![Ee]4 | z8 | %19
 !>![=E=e]4 !>![Ee]4 | z8 | !>![=E=e]4 !>![Ee]4 | z8 | !>![=E=e]4 !>![Ee]4 | z8 | %25
 (3[=B,D][B,D][B,D] [B,D]2 (3[CE][CE][CE] [CE]2 | z8 | %27
 (3[E^Fc][EFc][EFc] [EFc]2 (3[DG=B][DGB][DGB] [DGB]2 | %28
 (3[B=e][Be][Be] [Be]2 (3[=Ac][Ac][Ac] [Ac]2 | (3[Ad][Ad][Ad] [Ad]2 (3[=EG][EG][EG] [EG]2 | %30
 (3[C=E][DF][^D^F] (3[EG][F=A][_A=B] (3[=Ac][Bd][c=e] .[df]2 | %31
 [DFG]2 [DF=A]2 (3[G,F][=A,FA][=B,FG] .[CG]2 |] %32
V:4
 x8 | x8 | x8 | x8 | x8 | x8 | x8 | x8 | x8 | x8 | x8 | %11
 [=bd']2 [_bd']2 (3:2:2[=ad']2 [gd'] [gc']2 | x8 | x8 | x8 | [=bd']2 [=ad']2 (3fff =e2 | x8 | x8 | %18
 x8 | x8 | x8 | x8 | x8 | x8 | x8 | x8 | x8 | x8 | x8 | x8 | x8 | [=bd']2 [=ad']2 (3fff =e2 |] %32
V:5
 x8 | x8 | x8 | x8 | x8 | x8 | x8 | x8 | x8 | x8 | x8 | x8 | x8 | x8 | x8 | x8 | x8 | %17
 !>!=E,4 !>!E,4 | x8 | !>!=E,4 !>!E,4 | x8 | !>!=E,4 !>!E,4 | x8 | !>!=E,4 !>!E,4 | x8 | x8 | x8 | %27
 x8 | x8 | x8 | x8 | x8 |] %32

